img/icon-facebook.svg

<svg width="61" height="61" viewBox="0 0 61 61" fill="none" xmlns="http://www.w3.org/2000/svg">
<path d="M59.5 30.5C59.5 46.5163 46.5163 59.5 30.5 59.5C14.4837 59.5 1.5 46.5163 1.5 30.5C1.5 14.4837 14.4837 1.5 30.5 1.5C46.5163 1.5 59.5 14.4837 59.5 30.5Z" stroke="#F5F4F6" stroke-width="3"/>
<path d="M38.1677 31.694H32.7253V51.6322H24.4797V31.694H20.558V24.6869H24.4797V20.1525C24.4797 16.9099 26.02 11.8324 32.7987 11.8324L38.9065 11.8579V18.6595H34.4749C33.748 18.6595 32.7259 19.0227 32.7259 20.5695V24.6934H38.8881L38.1677 31.694Z" stroke="#F5F4F6" stroke-width="3" stroke-linejoin="round"/>
</svg>

<svg width="61" height="61" fill="none" xmlns="http://www.w3.org/2000/svg"><path d="M59.5 30.5c0 16.016-12.984 29-29 29s-29-12.984-29-29 12.984-29 29-29 29 12.984 29 29z" stroke="#F5F4F6" stroke-width="3"/><path d="M38.168 31.694h-5.443v19.938H24.48V31.694h-3.922v-7.007h3.922v-4.535c0-3.242 1.54-8.32 8.319-8.32l6.108.026v6.802h-4.432c-.727 0-1.75.363-1.75 1.91v4.123h6.163l-.72 7.001z" stroke="#F5F4F6" stroke-width="3" stroke-linejoin="round"/></svg>
